Papirus/48x48/apps/allegorithmic-Substance_Painter.svg

<svg width="48" height="48" version="1.1" xmlns="http://www.w3.org/2000/svg">
 <path d="m24.5 2.000013a2.5 2.4999908 0 0 0-2.5 2.5000063 2.5 2.4999908 0 0 0 2.5 2.5000064 2.5 2.4999908 0 0 0 2.5-2.5000064 2.5 2.4999908 0 0 0-2.5-2.5000063z" style="fill:#e2222f"/>
 <path d="M 24,8.0000131 A 16.999995,17 0 0 0 7.0000052,25.000026 16.999995,17 0 0 0 24,42.000001 16.999995,17 0 0 0 40.999994,25.000026 16.999995,17 0 0 0 24,8.0000131 Z" style="fill:#e2222f"/>
 <path d="m40.999998 35.000013a3.9999995 3.9999992 0 0 0-3.999999 3.999988 3.9999995 3.9999992 0 0 0 3.999999 4.000025 3.9999995 3.9999992 0 0 0 4.000003-4.000025 3.9999995 3.9999992 0 0 0-4.000003-3.999988z" style="fill:#e2222f"/>
 <path d="M 6,37.000026 A 2.0000001,2.0000001 0 0 0 3.9999999,39.000001 2.0000001,2.0000001 0 0 0 6,41.000013 2.0000001,2.0000001 0 0 0 7.9999998,39.000001 2.0000001,2.0000001 0 0 0 6,37.000026 Z" style="fill:#e2222f"/>
 <path d="m24.500001 2.000013a2.5 2.4999908 0 0 0-2.5 2.5000063 2.5 2.4999908 0 0 0 0.05273 0.5038866 2.5 2.4999908 0 0 1 2.447269-2.0039055 2.5 2.4999908 0 0 1 2.447266 1.9961197 2.5 2.4999908 0 0 0 0.052736-0.4961008 2.5 2.4999908 0 0 0-2.500001-2.5000063zm-0.5 6.0000001a16.999995 17 0 0 0-17 17.000013 16.999995 17 0 0 0 0.0214677 0.419905 16.999995 17 0 0 1 16.978532-16.41993 16.999995 17 0 0 1 16.978514 16.580108 16.999995 17 0 0 0 0.021543-0.580082 16.999995 17 0 0 0-17.000001-17.000013zm17.000001 27a3.9999995 3.9999992 0 0 0-4.000001 3.999988 3.9999995 3.9999992 0 0 0 0.03515 0.50589 3.9999995 3.9999992 0 0 1 3.964843-3.50589 3.9999995 3.9999992 0 0 1 3.964842 3.494135 3.9999995 3.9999992 0 0 0 0.03515-0.494135 3.9999995 3.9999992 0 0 0-3.999999-3.999988zm-35.000001 2.000013a2.0000001 2.0000001 0 0 0-1.9999998 1.999975 2.0000001 2.0000001 0 0 0 0.0644523 0.496101 2.0000001 2.0000001 0 0 1 1.9355467-1.496089 2.0000001 2.0000001 0 0 1 1.9355472 1.503912 2.0000001 2.0000001 0 0 0 0.0644522-0.503924 2.0000001 2.0000001 0 0 0-1.9999986-1.999975z" style="fill:#fffffc;opacity:.2"/>
 <path d="m26.947267 4.9961201a2.5 2.4999908 0 0 1-2.447266 2.0039056 2.5 2.4999908 0 0 1-2.447266-1.9961198 2.5 2.4999908 0 0 0-0.052736 0.4961008 2.5 2.4999908 0 0 0 2.500001 2.5000064 2.5 2.4999908 0 0 0 2.500001-2.5000064 2.5 2.4999908 0 0 0-0.052734-0.5038866zm-19.925782 20.423811a16.999995 17 0 0 0-0.0214677 0.580082 16.999995 17 0 0 0 17 17.000013 16.999995 17 0 0 0 16.999985-17.000013 16.999995 17 0 0 0-0.021544-0.419905 16.999995 17 0 0 1-16.978513 16.419893 16.999995 17 0 0 1-16.978516-16.58007zm37.943358 14.074205a3.9999995 3.9999992 0 0 1-3.964841 3.50589 3.9999995 3.9999992 0 0 1-3.964844-3.494135 3.9999995 3.9999992 0 0 0-0.03515 0.494135 3.9999995 3.9999992 0 0 0 3.999998 3.999987 3.9999995 3.9999992 0 0 0 4.000002-3.999987 3.9999995 3.9999992 0 0 0-0.03515-0.50589zm-40.900389 2e-3a2.0000001 2.0000001 0 0 0-0.064452 0.50389 2.0000001 2.0000001 0 0 0 1.9999998 1.999975 2.0000001 2.0000001 0 0 0 2.0000001-1.999975 2.0000001 2.0000001 0 0 0-0.064452-0.496101 2.0000001 2.0000001 0 0 1-1.9355471 1.496088 2.0000001 2.0000001 0 0 1-1.9355482-1.503911z" style="fill:#00000c;opacity:.2"/>
 <path d="m23.999997 12.000001-11.999997 6.999987v6l17.454894 5.817714-5.454894 3.182286-7-3.999987v-1.333342l-5-1.666658v6l12 6 12-6v-6.000038l-17.454898-5.817676 5.454898-2.682293 7 3.499994v1.333304l5 1.666696v-6z" style="opacity:.2"/>
 <path d="m24 12.000001-12 6v6l17.454894 5.817713-5.454894 2.682293-7-3.499994v-1.333341l-5-1.666659v6l12 6 12-6v-6.000038l-17.454898-5.817675 5.454898-2.682293 7 3.499994v1.333304l5 1.666696v-6z" style="fill:#ffffff"/>
</svg>

<svg xmlns="http://www.w3.org/2000/svg" width="48" height="48" version="1.1">
 <circle style="opacity:0.2" cx="24.5" cy="5.5" r="2.5"/>
 <circle style="opacity:0.2" cx="24" cy="26" r="17"/>
 <circle style="opacity:0.2" cx="41" cy="40" r="4"/>
 <circle style="opacity:0.2" cx="6" cy="40" r="2"/>
 <circle style="fill:#e2222f" cx="24.5" cy="4.5" r="2.5"/>
 <circle style="fill:#e2222f" cx="24" cy="25" r="17"/>
 <circle style="fill:#e2222f" cx="41" cy="39" r="4"/>
 <circle style="fill:#e2222f" cx="6" cy="39" r="2"/>
 <path style="opacity:0.2" d="M 24,13 12,19 V 25 L 29.455,30.818 24,33.5 17,30 V 28.667 L 12,27 V 33 L 24,39 36,33 V 27 L 18.545,21.182 24,18.5 31,22 V 23.333 L 36,25 V 19 Z"/>
 <path style="fill:#ffffff" d="M 24,12 12,18 V 24 L 29.455,29.818 24,32.5 17,29 V 27.667 L 12,26 V 32 L 24,38 36,32 V 26 L 18.545,20.182 24,17.5 31,21 V 22.333 L 36,24 V 18 Z"/>
 <path style="opacity:0.2;fill:#ffffff" d="M 24.5 2 A 2.5 2.5 0 0 0 22 4.5 A 2.5 2.5 0 0 0 22.053 4.9961 A 2.5 2.5 0 0 1 24.5 3 A 2.5 2.5 0 0 1 26.947 5.0039 A 2.5 2.5 0 0 0 27 4.5 A 2.5 2.5 0 0 0 24.5 2 z"/>
 <path style="opacity:0.2;fill:#ffffff" d="M 24 8 A 17 17 0 0 0 7 25 A 17 17 0 0 0 7.0215 25.58 A 17 17 0 0 1 24 9 A 17 17 0 0 1 40.979 25.42 A 17 17 0 0 0 41 25 A 17 17 0 0 0 24 8 z"/>
 <path style="opacity:0.2;fill:#ffffff" d="M 41 35 A 4 4 0 0 0 37 39 A 4 4 0 0 0 37.035 39.494 A 4 4 0 0 1 41 36 A 4 4 0 0 1 44.965 39.506 A 4 4 0 0 0 45 39 A 4 4 0 0 0 41 35 z"/>
 <path style="opacity:0.2;fill:#ffffff" d="M 6 37 A 2 2 0 0 0 4 39 A 2 2 0 0 0 4.0645 39.504 A 2 2 0 0 1 6 38 A 2 2 0 0 1 7.9355 39.496 A 2 2 0 0 0 8 39 A 2 2 0 0 0 6 37 z"/>
</svg>
